Numix-GalliumOS/64/mimetypes/application-document.svg

<svg xmlns="http://www.w3.org/2000/svg" xmlns:xlink="http://www.w3.org/1999/xlink" width="64px" height="64px" viewBox="0 0 64 64" version="1.1">
<g id="surface1">
<path style=" stroke:none;fill-rule:nonzero;fill:rgb(86.27451%,86.27451%,86.27451%);fill-opacity:1;" d="M 10.671875 0 C 9.296875 0 8 1.355469 8 2.789062 L 8 61.210938 C 8 62.566406 9.375 64 10.671875 64 L 53.328125 64 C 54.625 64 56 62.566406 56 61.210938 L 56 18 L 38 0 Z M 10.671875 0 "/>
<path style=" stroke:none;fill-rule:nonzero;fill:rgb(0%,0%,0%);fill-opacity:0.196078;" d="M 42 18 L 56 32 L 56 18 Z M 42 18 "/>
<path style=" stroke:none;fill-rule:nonzero;fill:rgb(100%,100%,100%);fill-opacity:0.392157;" d="M 38 0 L 55.984375 18 L 40.757812 18 C 39.410156 18 38 16.574219 38 15.226562 Z M 38 0 "/>
<path style=" stroke:none;fill-rule:evenodd;fill:rgb(53.333333%,53.333333%,53.333333%);fill-opacity:1;" d="M 20 22 L 32 22 L 32 32 L 20 32 Z M 20 22 "/>
<path style=" stroke:none;fill-rule:evenodd;fill:rgb(53.333333%,53.333333%,53.333333%);fill-opacity:1;" d="M 34 22 L 44 22 L 44 24 L 34 24 Z M 34 22 "/>
<path style=" stroke:none;fill-rule:evenodd;fill:rgb(53.333333%,53.333333%,53.333333%);fill-opacity:1;" d="M 34 26 L 44 26 L 44 28 L 34 28 Z M 34 26 "/>
<path style=" stroke:none;fill-rule:evenodd;fill:rgb(53.333333%,53.333333%,53.333333%);fill-opacity:1;" d="M 34 30 L 44 30 L 44 32 L 34 32 Z M 34 30 "/>
<path style=" stroke:none;fill-rule:evenodd;fill:rgb(53.333333%,53.333333%,53.333333%);fill-opacity:1;" d="M 20 34 L 44 34 L 44 36 L 20 36 Z M 20 34 "/>
<path style=" stroke:none;fill-rule:evenodd;fill:rgb(53.333333%,53.333333%,53.333333%);fill-opacity:1;" d="M 20 38 L 44 38 L 44 40 L 20 40 Z M 20 38 "/>
<path style=" stroke:none;fill-rule:evenodd;fill:rgb(53.333333%,53.333333%,53.333333%);fill-opacity:1;" d="M 20 42 L 44 42 L 44 44 L 20 44 Z M 20 42 "/>
<path style=" stroke:none;fill-rule:evenodd;fill:rgb(53.333333%,53.333333%,53.333333%);fill-opacity:1;" d="M 20 46 L 44 46 L 44 48 L 20 48 Z M 20 46 "/>
</g>
</svg>

<svg xmlns="http://www.w3.org/2000/svg" viewBox="0 0 64 64">
 <path d="m 10.672 0 c -1.375 0 -2.672 1.355 -2.672 2.789 l 0 58.42 c 0 1.355 1.375 2.789 2.672 2.789 l 42.656 0 c 1.297 0 2.672 -1.434 2.672 -2.789 l 0 -43.21 -18 -18 m -27.328 0" style="fill:#dcdcdc;fill-opacity:1;stroke:none;fill-rule:nonzero"/>
 <path d="m 42 18 14 14 0 -14 z m 0 0" style="fill:#000;fill-opacity:0.196;stroke:none;fill-rule:nonzero"/>
 <path d="m 38 0 17.984 18 -15.227 0 c -1.348 0 -2.758 -1.426 -2.758 -2.773 m 0 -15.227" style="fill:#fff;fill-opacity:0.392;stroke:none;fill-rule:nonzero"/>
 <path d="m 20 22 12 0 0 10 -12 0 z m 0 0" style="fill:#888;fill-opacity:1;stroke:none;fill-rule:evenodd"/>
 <path d="m 34 22 10 0 0 2 -10 0 z m 0 0" style="fill:#888;fill-opacity:1;stroke:none;fill-rule:evenodd"/>
 <path d="m 34 26 10 0 0 2 -10 0 z m 0 0" style="fill:#888;fill-opacity:1;stroke:none;fill-rule:evenodd"/>
 <path d="m 34 30 10 0 0 2 -10 0 z m 0 0" style="fill:#888;fill-opacity:1;stroke:none;fill-rule:evenodd"/>
 <path d="m 20 34 24 0 0 2 -24 0 z m 0 0" style="fill:#888;fill-opacity:1;stroke:none;fill-rule:evenodd"/>
 <path d="m 20 38 24 0 0 2 -24 0 z m 0 0" style="fill:#888;fill-opacity:1;stroke:none;fill-rule:evenodd"/>
 <path d="m 20 42 24 0 0 2 -24 0 z m 0 0" style="fill:#888;fill-opacity:1;stroke:none;fill-rule:evenodd"/>
 <path d="m 20 46 24 0 0 2 -24 0 z m 0 0" style="fill:#888;fill-opacity:1;stroke:none;fill-rule:evenodd"/>
</svg>
